X:1
T:Title
%%score { ( 1 3 ) | 2 }
L:1/8
M:4/4
K:Ab
V:1 treble nm="Grand Piano"
V:3 treble 
V:2 bass 
V:1
 z4 z2[Q:1/4=100] [CE][CE] | [CA]2 [CA]2 [CA][DG][EA]B | c2 c2 c2 cd | e2 e2 ecBA | %4
 z4 B2[K:bass] z[K:treble] E | [CA]2 [CA]2 [CA][DG][EA]B | c2 c2 c2 cd | e2 e2 ecBA | %8
[M:3/4] G2 [=DF]2 E2 |[M:1/4] EE |[M:4/4] e6 z2 |[M:3/4] G6 |[M:1/4] EE | %13
[M:4/4] dddd d[EG][EA][EB] |[M:3/4] c6 |[M:1/4] [CE][CE] |[M:4/4] e6 z2 |[M:3/4] F6 | %18
[M:1/4] [Fd][Fd] |[M:4/4] c6 z2 |[M:3/4] A6 |] %21
V:2
 z4 z2 [A,,A,][A,,A,] | [A,,E,]2 [A,,E,]2 [A,,E,][C,E,][C,A,][E,G,E] | %2
 [A,E]2 [A,E]2 [A,E]2 [A,E][A,B,E] | [A,CA]2 [A,CA]2 [A,CA][K:bass][A,E][G,B,E][F,A,=D] | %4
 [E,G,E]2 [B,,A,]2 .[E,G,E]2 [C,A,][B,,A,] | [A,,A,]2 [A,,E,]2 [A,,E,][B,,E,][C,A,][E,G,E] | %6
 [A,E]2 [A,E]2 [A,E]2 [A,E][A,B,E] | [A,CA]2 [B,DG]2 [CEA][A,EA][G,B,E][A,CF] | %8
[M:3/4][K:bass] [B,E]2 [B,,A,]2 [E,G,]2 |[M:1/4] [E,D][E,D] |[M:4/4] [A,CE]2 [A,C]2 .[A,C]2 z2 | %11
[M:3/4] [E,B,E][E,B,] [E,B,][E,B,] [E,B,]2 |[M:1/4] [E,G,][E,G,] | %13
[M:4/4] [B,E][A,B,E][G,B,E][F,B,E] [E,B,E][D,B,][C,A,][B,,G,] | %14
[M:3/4] [A,,A,]2 [A,,A,][A,,A,] [A,,A,]2 |[M:1/4] [A,,A,][A,,A,] | %16
[M:4/4] [A,CE]2 [A,C]2 .[A,C]2 z2 |[M:3/4] [D,A,D][D,A,] [D,A,][D,A,] [D,A,]2 | %18
[M:1/4] [D,A,][D,A,] |[M:4/4] [E,A,E][E,A,][E,A,][E,A,] [E,A,][E,A,C] z2 | %20
[M:3/4] [A,,A,][A,,G,] [A,,F,][A,,A,] [A,,E,]2 |] %21
V:3
 x8 | x8 | x8 | x8 | B2 [=DB]2 z[K:bass] D, .E>[K:treble]D | x8 | x8 | x8 |[M:3/4] x6 |[M:1/4] x2 | %10
[M:4/4] z2 E2 EcBA |[M:3/4] z E EE E2 |[M:1/4] x2 |[M:4/4] x8 |[M:3/4] E2 EE E2 |[M:1/4] x2 | %16
[M:4/4] z2 E2 EcBA |[M:3/4] z D DD D2 |[M:1/4] x2 |[M:4/4] z EEE EABG |[M:3/4] CE DF C2 |] %21

